usr/share/icons/biglinux-icons-material/scalable/mimetypes/application-photoshop.svg

<svg width="24" height="24" viewBox="0 0 24 24" fill="none" xmlns="http://www.w3.org/2000/svg">
<rect x="1" y="1" width="22" height="22" rx="6.6" fill="url(#paint0_radial_3_1350)"/>
<path d="M5 6.18859C5 6.11092 5.15531 6.05546 5.24405 6.05546C5.95404 6.02218 7.00791 6 8.10629 6C11.1792 6 12.3773 7.68621 12.3773 9.84955C12.3773 12.6674 10.3361 13.8766 7.8291 13.8766C7.40755 13.8766 7.26333 13.8544 6.96379 13.8544V18.1142C6.96379 18.203 6.93052 18.2474 6.83066 18.2474H5.13336C5.04462 18.2474 5.00023 18.2141 5.00023 18.1142L5 6.18859ZM6.97466 12.0793C7.2298 12.1015 7.4295 12.1015 7.87324 12.1015C9.17118 12.1015 10.3915 11.6467 10.3915 9.8828C10.3915 8.47392 9.5151 7.76395 8.03973 7.76395C7.596 7.76395 7.17443 7.78613 6.97475 7.79723L6.97466 12.0793ZM16.5151 10.7592C15.6387 10.7592 15.3392 11.2029 15.3392 11.569C15.3392 11.9684 15.5388 12.2457 16.7147 12.8559C18.4564 13.699 19 14.5088 19 15.6959C19 17.4709 17.6466 18.4248 15.8162 18.4248C14.8511 18.4248 14.019 18.2251 13.542 17.9478C13.4644 17.9145 13.4533 17.8591 13.4533 17.7703V16.1395C13.4533 16.0286 13.5087 15.9953 13.5864 16.0508C14.2853 16.5056 15.084 16.7053 15.8162 16.7053C16.6926 16.7053 17.0587 16.3392 17.0587 15.84C17.0587 15.4406 16.8035 15.0856 15.6831 14.5088C14.1078 13.7544 13.4533 12.989 13.4533 11.7131C13.4533 10.282 14.5737 9.09512 16.5152 9.09512C17.4692 9.09512 18.1348 9.23935 18.5009 9.40575C18.5897 9.46121 18.6119 9.54997 18.6119 9.62762V11.1474C18.6119 11.2362 18.5564 11.2916 18.4455 11.2584C17.9573 10.9477 17.2361 10.7592 16.5151 10.7592Z" fill="#00C8FF"/>
<defs>
<radialGradient id="paint0_radial_3_1350" cx="0" cy="0" r="1" gradientUnits="userSpaceOnUse" gradientTransform="translate(17.5 1) rotate(116.565) scale(24.5967)">
<stop stop-color="#767676"/>
<stop offset="1" stop-color="#262626"/>
</radialGradient>
</defs>
</svg>

<svg xmlns="http://www.w3.org/2000/svg" width="24" height="24" fill="none"><rect width="22" height="22" x="1" y="1" fill="url(#a)" rx="6.6"/><path fill="#00C8FF" d="M5 6.189c0-.078.155-.134.244-.134C5.954 6.022 7.008 6 8.106 6c3.073 0 4.271 1.686 4.271 3.85 0 2.817-2.04 4.027-4.548 4.027-.421 0-.566-.023-.865-.023v4.26c0 .089-.033.133-.133.133H5.133c-.088 0-.133-.033-.133-.133V6.19Zm1.975 5.89c.255.022.455.022.898.022 1.298 0 2.519-.454 2.519-2.218 0-1.41-.877-2.119-2.352-2.119-.444 0-.866.022-1.065.033v4.282Zm9.54-1.32c-.876 0-1.176.444-1.176.81 0 .4.2.677 1.376 1.287 1.741.843 2.285 1.653 2.285 2.84 0 1.775-1.353 2.729-3.184 2.729-.965 0-1.797-.2-2.274-.477-.078-.034-.089-.089-.089-.178v-1.63c0-.111.056-.145.133-.09a4.118 4.118 0 0 0 2.23.655c.877 0 1.243-.366 1.243-.865 0-.4-.256-.754-1.376-1.331-1.575-.755-2.23-1.52-2.23-2.796 0-1.431 1.12-2.618 3.062-2.618.954 0 1.62.144 1.986.31.089.056.11.145.11.223v1.52c0 .088-.055.144-.166.11-.488-.31-1.209-.499-1.93-.499Z"/><defs><radialGradient id="a" cx="0" cy="0" r="1" gradientTransform="rotate(116.565 8.441 5.908) scale(24.5967)" gradientUnits="userSpaceOnUse"><stop stop-color="#767676"/><stop offset="1" stop-color="#262626"/></radialGradient></defs></svg>
